Obsidian-SemiLight/actions/16s/mail-message-new-list.svg

<svg viewBox="0 0 16 16" xmlns="http://www.w3.org/2000/svg"><path d="m3 2c-.5522847 0-1 .4477153-1 1s.4477153 1 1 1 1-.4477153 1-1-.4477153-1-1-1zm2 0v1h2 6v-1h-6zm0 2v1h2 4v-1h-4zm-2 4c-.5522847 0-1 .4477153-1 1s.4477153 1 1 1 1-.4477153 1-1-.4477153-1-1-1zm2 0v1h5v-1zm6 1v2h-2v1h2v2h1v-2h2v-1h-2v-2zm-6 1v1h3v-1z" fill="#4d4d4d"/></svg>

<svg xmlns="http://www.w3.org/2000/svg" viewBox="0 0 16 16">
  <defs id="defs3051">
    <style type="text/css" id="current-color-scheme">
      .ColorScheme-Text {
        color:#4d4d4d;
      }
      </style>
  </defs>
 <path style="fill:currentColor;fill-opacity:1;stroke:none" 
     d="M 3 2 C 2.4477153 2 2 2.4477153 2 3 C 2 3.5522847 2.4477153 4 3 4 C 3.5522847 4 4 3.5522847 4 3 C 4 2.4477153 3.5522847 2 3 2 z M 5 2 L 5 3 L 7 3 L 13 3 L 13 2 L 7 2 L 5 2 z M 5 4 L 5 5 L 7 5 L 11 5 L 11 4 L 7 4 L 5 4 z M 3 8 C 2.4477153 8 2 8.4477153 2 9 C 2 9.5522847 2.4477153 10 3 10 C 3.5522847 10 4 9.5522847 4 9 C 4 8.4477153 3.5522847 8 3 8 z M 5 8 L 5 9 L 10 9 L 10 8 L 5 8 z M 11 9 L 11 11 L 9 11 L 9 12 L 11 12 L 11 14 L 12 14 L 12 12 L 14 12 L 14 11 L 12 11 L 12 9 L 11 9 z M 5 10 L 5 11 L 8 11 L 8 10 L 5 10 z "
     class="ColorScheme-Text"
     />
</svg>
